assets/images/dots.svg

<svg fill="none" height="70" viewBox="0 0 52 70" width="52" xmlns="http://www.w3.org/2000/svg" xmlns:xlink="http://www.w3.org/1999/xlink"><linearGradient id="a" gradientUnits="userSpaceOnUse" x1="40.9238" x2="40.9237" y1="-4.2842" y2="146.294"><stop offset="0" stop-color="#3a4a3e"/><stop offset="1" stop-color="#fff"/></linearGradient><path d="m25.974 69.74c-.2883 0-.5609-.1301-.743-.3534-.1408-.173-14.1378-17.3893-18.78201-24.2544-2.31141-3.4169-4.02808-6.9038-5.10058-10.3643-1.051092-3.384-1.490968-6.7572-1.3080985-10.025.3583255-6.4285 3.1458585-12.4246 8.0610985-17.33989 4.77439-4.77361 11.12129-7.40301 17.87259-7.40301 6.7514 0 13.0983 2.6294 17.8727 7.40301 4.9152 4.91529 7.7028 10.91139 8.0611 17.33989.182 3.2678-.2578 6.641-1.3073 10.0258-1.0733 3.4605-2.7892 6.9475-5.1006 10.3644-4.6442 6.8651-18.6412 24.0814-18.782 24.2544-.1821.2232-.4555.3525-.7439.3525z" fill="url(#a)"/><path d="m35.3942 44.7814c-.8978 0-1.7187-.1667-2.4627-.5002-.7182-.3592-1.4365-.9364-2.1548-1.7316-.6927-.8209-1.4622-1.9368-2.3088-3.3477l-3.848-6.5416h-2.6936v11.7363h-3.4631v-20.779c0-1.1544-.1668-2.0779-.5003-2.7706-.3078-.7183-1.0389-1.0774-2.1933-1.0774h-.7696v-.7696h10.0047c.667 0 1.4109.0513 2.2318.1539.8466.077 1.6932.2566 2.5397.5387.8722.2566 1.6675.6414 2.3858 1.1544.7439.4874 1.3339 1.1544 1.77 2.001.4618.8209.6927 1.847.6927 3.0783 0 1.4879-.3335 2.6808-1.0005 3.5787-.6413.8722-1.4366 1.5392-2.3858 2.0009-.9491.4361-1.8726.7568-2.7705.962l4.0404 6.734c.9748 1.6418 1.847 2.7705 2.6166 3.3862.7696.59 1.629.9363 2.5781 1.0389v.7696c-.2052.1026-.5259.1924-.962.2694-.4104.0769-.8593.1154-1.3468.1154zm-10.5819-13.4679c.5387 0 1.1416-.1026 1.8086-.3078.667-.2053 1.3211-.5131 1.9624-.9235.6414-.4361 1.1673-1.0005 1.5777-1.6931.4105-.6927.6157-1.5136.6157-2.4628 0-1.0004-.2052-1.8598-.6157-2.5781-.4104-.7183-.9363-1.2955-1.5777-1.7316-.6413-.4361-1.2954-.7567-1.9624-.962-.667-.2052-1.2699-.3078-1.8086-.3078-.4874 0-1.0004.0385-1.5392.1154-.513.077-.962.1668-1.3468.2694v10.1971c.3848.1026.8338.1924 1.3468.2694.5388.0769 1.0518.1154 1.5392.1154z" fill="#fff"/></svg>

<svg width="52" height="70" viewBox="0 0 52 70" fill="none" xmlns="http://www.w3.org/2000/svg">
<path d="M25.974 69.74C25.6857 69.74 25.4131 69.6099 25.231 69.3866C25.0902 69.2136 11.0932 51.9973 6.44899 45.1322C4.13758 41.7153 2.42091 38.2284 1.34841 34.7679C0.297318 31.3839 -0.142558 28.0107 0.0403115 24.7429C0.398637 18.3144 3.18617 12.3183 8.10141 7.40301C12.8758 2.6294 19.2227 0 25.974 0C32.7254 0 39.0723 2.6294 43.8467 7.40301C48.7619 12.3183 51.5495 18.3144 51.9078 24.7429C52.0898 28.0107 51.65 31.3839 50.6005 34.7687C49.5272 38.2292 47.8113 41.7162 45.4999 45.1331C40.8557 51.9982 26.8587 69.2145 26.7179 69.3875C26.5358 69.6107 26.2624 69.74 25.974 69.74Z" fill="url(#paint0_linear_1396_3025)"/>
<path d="M35.3942 44.7814C34.4964 44.7814 33.6755 44.6147 32.9315 44.2812C32.2133 43.922 31.495 43.3448 30.7767 42.5496C30.084 41.7287 29.3145 40.6128 28.4679 39.2019L24.6199 32.6603H21.9263L21.9263 44.3966L18.4632 44.3966L18.4632 23.6176C18.4632 22.4632 18.2964 21.5397 17.9629 20.847C17.6551 20.1287 16.924 19.7696 15.7696 19.7696H15L15 19L25.0047 19C25.6717 19 26.4156 19.0513 27.2365 19.1539C28.0831 19.2309 28.9297 19.4105 29.7762 19.6926C30.6484 19.9492 31.4437 20.334 32.162 20.847C32.9059 21.3344 33.4959 22.0014 33.932 22.848C34.3938 23.6689 34.6247 24.695 34.6247 25.9263C34.6247 27.4142 34.2912 28.6071 33.6242 29.505C32.9829 30.3772 32.1876 31.0442 31.2384 31.5059C30.2893 31.942 29.3658 32.2627 28.4679 32.4679L32.5083 39.2019C33.4831 40.8437 34.3553 41.9724 35.1249 42.5881C35.8945 43.1781 36.7539 43.5244 37.703 43.627V44.3966C37.4978 44.4992 37.1771 44.589 36.741 44.666C36.3306 44.7429 35.8817 44.7814 35.3942 44.7814ZM24.8123 31.3135C25.351 31.3135 25.9539 31.2109 26.6209 31.0057C27.2879 30.8004 27.942 30.4926 28.5833 30.0822C29.2247 29.6461 29.7506 29.0817 30.161 28.3891C30.5715 27.6964 30.7767 26.8755 30.7767 25.9263C30.7767 24.9259 30.5715 24.0665 30.161 23.3482C29.7506 22.6299 29.2247 22.0527 28.5833 21.6166C27.942 21.1805 27.2879 20.8599 26.6209 20.6546C25.9539 20.4494 25.351 20.3468 24.8123 20.3468C24.3249 20.3468 23.8119 20.3853 23.2731 20.4622C22.7601 20.5392 22.3111 20.629 21.9263 20.7316L21.9263 30.9287C22.3111 31.0313 22.7601 31.1211 23.2731 31.1981C23.8119 31.275 24.3249 31.3135 24.8123 31.3135Z" fill="white"/>
<defs>
<linearGradient id="paint0_linear_1396_3025" x1="40.9238" y1="-4.2842" x2="40.9237" y2="146.294" gradientUnits="userSpaceOnUse">
<stop stop-color="#3A4A3E"/>
<stop offset="1" stop-color="white"/>
</linearGradient>
</defs>
</svg>
